X:239
T: Der lustige Nagelschmied (3-42), S. 127
N: P1014
O: Lothringen
S: PINCK, Louis: Verklingende Weisen, Bd3, Metz 1933]
R: Berufslied]
M: 2/4
L: 1/16
K: G
 | G2G2B2B2 | G2G2A4 |
B2G2d2dd | B2A2G2z
G | G2G2B2B2 | G2G2A4 |
B2G2d2dd | B8

